packages/foundations/assets/icons/functional/images/notification/bell_20_filled.svg

<svg width="20" height="20" viewBox="0 0 20 20" fill="none" xmlns="http://www.w3.org/2000/svg">
<g clip-path="url(#clip0_2214_8036)">
<path fill-rule="evenodd" clip-rule="evenodd" d="M9.9902 2C13.3877 2 15.6527 4.49755 15.6527 8.22444V12.1268C15.6527 13.3756 15.8089 13.6098 16.5314 14.1366C16.8438 14.3513 17 14.6634 17 14.9756C17 15.4439 16.6499 15.9707 16.1018 15.9707H12.0014V15.9902C12.0014 17.1024 11.1032 18 9.9902 18C8.9554 18 7.9791 17.1024 7.9791 15.9707H3.9958C3.371 15.9707 3 15.4634 3 14.9561C3 14.6829 3.0976 14.4097 3.3515 14.2147C4.1715 13.6878 4.3278 13.3951 4.3278 12.0683V8.49755C4.3278 4.61467 6.5342 2 9.9902 2Z" fill="#1A1C1F"/>
</g>
<defs>
<clipPath id="clip0_2214_8036">
<rect width="20" height="20" fill="white"/>
</clipPath>
</defs>
</svg>

<svg xmlns="http://www.w3.org/2000/svg" width="20" height="20" fill="none"><g clip-path="url(#a)"><path fill="#1A1C1F" fill-rule="evenodd" d="M9.99 2c3.398 0 5.663 2.498 5.663 6.224v3.903c0 1.249.156 1.483.878 2.01.313.214.469.526.469.839 0 .468-.35.995-.898.995h-4.1v.02c0 1.111-.899 2.009-2.012 2.009-1.035 0-2.01-.898-2.01-2.03H3.995c-.625 0-.996-.507-.996-1.014 0-.273.098-.546.352-.741.82-.527.976-.82.976-2.147v-3.57C4.328 4.615 6.534 2 9.99 2" clip-rule="evenodd"/></g><defs><clipPath id="a"><path fill="#fff" d="M0 0h20v20H0z"/></clipPath></defs></svg>
